X:201
T:Trip to Athlone, The
T:Newport Lass, The
R:jig
D:De Danann 1
D:Molloy, Peoples, Brady
Z:id:hn-jig-201
M:6/8
K:D
ABA DED|dcA AGE|ABA ABc|dAB cde|
ABA ~D3|dcA AGE|GFG Ade|1 fdc d2c:|2 fdc d2e||
|:f2d edc|Add cde|fed edc|ABc def|
~g3 age|dcA AGE|GFG Ade|1 fdc d2e:|2 fdc d2c||
P:variations
|:~A3 D2d|d=cA AGE|~A3 ABc|dAB cde|
~A3 D2d|d=cA AGE|~G3 Ade|1 fdc d2c:|2 fdc d2e||
fed edc|AdB cde|fed efg|ABc def|
g2a age|d=cA AGE|GFG Ade|fdc d2e|
fed edc|AdB cde|~f3 gec|ABc def|
g2a age|d=cA AGE|~G3 Ade|fdc d2c||

